src/icons/icons_set_01/000-facebook.svg

<svg height="50" viewBox="0 0 50 50" width="50" xmlns="http://www.w3.org/2000/svg"><path d="m21.3900917 15.0335786h-7.6543221v-3.7308881s-.4276017-3.55084526 2.0529887-3.55084526h5.0412v-7.64682024h-8.5770416s-7.19171194-.03000714-7.19171194 7.18421012c0 1.55036905 0 4.37104048-.01750416 7.75184528h-4.92867322v6.158966h4.91617024c-.03000714 9.7948316-.06251488 20.7099298-.06251488 20.7099298h8.76708686v-20.714931h5.7863774l1.8679447-6.158966z" transform="translate(14.24744 3.995)"/></svg>

<?xml version="1.0" encoding="UTF-8"?>
<svg width="50px" height="50px" viewBox="0 0 50 50" version="1.1" xmlns="http://www.w3.org/2000/svg" xmlns:xlink="http://www.w3.org/1999/xlink">
    <!-- Generator: Sketch 52.4 (67378) - http://www.bohemiancoding.com/sketch -->
    <title>000-facebook</title>
    <desc>Created with Sketch.</desc>
    <g id="000-facebook" stroke="none" stroke-width="1" fill="none" fill-rule="evenodd">
        <g id="Group" transform="translate(14.247440, 3.995000)" fill="#000000" fill-rule="nonzero">
            <g id="029-facebook">
                <g id="ICONSET-01">
                    <g id="029-facebook">
                        <path d="M21.3900917,15.0335786 L13.7357696,15.0335786 L13.7357696,11.3026905 C13.7357696,11.3026905 13.3081679,7.75184524 15.7887583,7.75184524 L20.8299583,7.75184524 L20.8299583,0.105025 L12.2529167,0.105025 C12.2529167,0.105025 5.06120476,0.0750178571 5.06120476,7.28923512 C5.06120476,8.83960417 5.06120476,11.6602756 5.0437006,15.0410804 L0.115027381,15.0410804 L0.115027381,21.2000464 L5.03119762,21.2000464 C5.00119048,30.994878 4.96868274,41.9099762 4.96868274,41.9099762 L13.7357696,41.9099762 L13.7357696,21.1950452 L19.522147,21.1950452 L21.3900917,15.0360792 L21.3900917,15.0335786 Z" id="Shape"></path>
                    </g>
                </g>
            </g>
        </g>
    </g>
</svg>
